X:74
T:Capel y Ddol
M:3/2
L:1/4
Q:140
C:Joseph David Jones 1827 - 1870
R:Hymn
K:G
E F | G2 G2 F E | F2 F2 G A | B2 BAGF | E4 :||
B B | A2 A2 G G | F2 F2 G F | E2 E2 A G |
F4 G A | B2 B A G F | E4 ||
